X: 33
T:Nutting Girl, The (Bampton)
M:4/4
L:1/8
R:Hornpipe
O:England; Oxfordshire; Bampton.
B:Lionel Bacon, A Handbook of Morris Dances
Z:http://www.themorrisring.org/music/handbook-morris-dances
P:A.AB(CB)2
K:G
P:A
BA|G2GA BAGB|d2(3cdc A2GF|G2Bc    d2g2|d4   d3 B|
cdec A2Bc|BcdB    G2AB|c2(3AcA F2D2|G4   G2 ||
P:B
BA|G2g2 gefg|(3fgfd2 d2Bc|d2ef (3gagfe|f4   f3 e|
d2g2 g3 f|e2d2    d3 B|A2B2    c2d2|efgf dBcA|
G2GA BAGB|d2(3cdc A2GF|G2Bc    d2g2|d4   d3 B|
cdec A2Bc|BcdB    G2AB|c2(3AcA F2D2|G4   G2 ||
P:C
M:2/4
L:1/8
B3A|\
M:4/4
G4 G3A|B3A G3B|d4 c4|A4 F4|G4 B3c|d4 g4|d4 d4|
M:2/4
L:1/8
d2B2|\
M:4/4
cdec A2Bc|BcdB    G2AB|c2(3AcA F2D2|G4   G2 ||

